X:82
T:Mother's Delight
R:reel
H:Related to "Sporting Molly", #74
D:Paddy Glackin: Ceol ar an bhFidil le Paddy Glackin.
D:Frankie Gavin and Alec Finn.
Z:id:hn-reel-82
M:C|
K:Ddor
~F3D ~G3E|~F3D GECE|Dddc defe|d2cd ABcA|
~d3c AGAB|~c3G ECCE|Dddc AGAB|cAGE FDDE:|
|:FAdA FD~D2|EGcG EC~C2|FAdA FD~D2|EDCE ~D3E|
FAdA FD~D2|EGcG ECCE|~F3E FEDC|A,CDE ~D3E:|
